!!!COM: Clara Schumann
!!!CNT: Deutsch
!!!TXO: Deutsch
!!!OTL: Warum willst du and're fragen
!!!LYR: Ru2ckert
!!!OPR: Liebesfru2hling
!!!OPS: Op. 12
!!!ONM: No. 11
!!!ENC: Ben Fuhrman
!!!YOR: Frauen komponieren: 25 Lieder fu2r Singstimme und Klavier
!!!YOR: Mainz, B. Schott's So2hne, 1992.
!!!ODT: 1841
!!NB: Only vocal melody encoded.
!!NB: First instance of melodic material only encoded.
!!created: 2/16/10 2:52PM
!!proofed and posted: 2/16/10 2:52PM
**kern	**silbe
*clef G2	*
*k[b-e-a-d-]	*
*M3/4	*
*MM[Andante]	*
=4	=4
4r	.
4r	.
{8e-	{War-
8e-	um
=5	=5
4.f	willst
8a-	du
8dd-	and'-
8dd-	-re
=6	=6
4dd-	fra-
4cc	-gen,
8cc	die's
8b-	nicht
=7	=7
4.a-	mei-
8a-	-nen
8a-	treu
8a-	mit
=8	=8
2g}	dir?}
{8cc	{Glau-
8cc	-be
=9	=9
4.cc	nicht
8an	als
8b-	was
8cc	dir
=10	=10
4cc	sa-
4dd-	-gen
8dd-	die-
8dd-	-se
=11	=11
4.dd-	bei-
8dd-	-den
8ddn	Au-
8ddn	-gen
=12	=12
(2ee-	hier!
e-q)}	|}
{8e-	{Glau
8e-	-be
=13	=13
4.f	nicht
8a-	den
8dd-	frem-
8dd-	-den
=14	=14
4dd-	Leu-
4cc	-ten,
8cc	glau-
8b-	-be
=15	=15
4.a-	nicht
8a-	dem
8a-	eig-
8a-	-nen
=16	=16
2g}	Wahn;}
{8cc	{nicht
8cc	mein
=17	=17
4.cc	Tun
8an	auch
8b-	sollst
8cc	du
=18	=18
4cc	deu-
4dd-	-ten,
8dd-	son-
8dd-	-dern
=19	=19
4.dd-	sieh
8dd-	die
(8dd-	Au
ee-q	|
dd-q	|
16cc)	|
16dd-	-gen
=20	=20
2ee-}	an!}
4r	.
!! Rest to measure 24
=24	=24
4r	.
4r	.
{8e-	{Schweigt
8e-	die
=25	=25
4.f	Lip-
8a-	-pe
8d-	dei-
8d-	-nen
=26	=26
4dd-	Fra-
4cc	-gen
8cc	o-
8b-	-der
=27	=27
4.a-	zeugt
8a-	sie
8a-	ge-
8a-	-gen
=28	=28
2g}	mich?}
{8cc	{Was
8cc	auch
=29	=29
4.cc	mei-
8an	-ne
8b-	Lip-
8cc	-pen
=30	=30
4cc	sa-
4dd-	-gen,
8dd-	sieh
8dd-	mein
=31	=31
8dd-	Aug',
8dd-	ich
4.ee-	lie-
8a-	-be
=32	=32
2ff}	dich!}
4r	.
=33	=33
2.r	.
=34	=34
4r	.
4r	.
{8ff	{Was
8ff	auch
=35	=35
4.g	mei-
8a-	-ne
8dd-	Lip-
8dd-	-pen
=36	=36
4dd-	sa-
4cc	-gen,
8cc	sieh
8cc	mein
=37	=37
4.ee-	Aug',
8dd-	ich
8cc	lie-
8b-	-be
=38	=38
2a-}	dich!}
4r	.
==	==
*-	*-
